actions/24/media-repeat-album-amarok.svg

<svg xmlns="http://www.w3.org/2000/svg" viewBox="0 0 24 24" width="24" height="24">
  <defs id="defs3051">
    <style type="text/css" id="current-color-scheme">.ColorScheme-Text {color:#fcfcfc;}</style>
  </defs>
  <g transform="translate(1,1)">
    <path style="fill:currentColor;fill-opacity:1;stroke:none" d="m 2,5 c 0,2 0,10 0,12 0,2 2,2 2,2 H 9 V 18 H 8 C 8,17.447715 7.5522847,17 7,17 6.4477153,17 6,17.447715 6,18 H 5 V 11 4 H 6 C 6,4.5522847 6.4477153,5 7,5 7.5522847,5 8,4.5522847 8,4 h 4 4 c 0,0.5522847 0.447715,1 1,1 0.552285,0 1,-0.4477153 1,-1 0,0 1,0 1,1 0,1 0,6 0,6 v 1 h 1 C 20,12 20,7 20,5 20,3 18,3 18,3 H 4 C 4,3 2,3 2,5 Z m 17,6 C 19,7.1340068 15.865993,4 12,4 8.1340068,4 5,7.1340068 5,11 c 0.00315,2.700827 1.5597788,5.15891 4,6.316406 V 16.189453 C 7.1456648,15.118854 6.0023916,13.1412 6,11 6,7.6862915 8.6862915,5 12,5 c 3.313708,0 6,2.6862915 6,6 -0.002,0.335258 -0.03201,0.669762 -0.08984,1 h 1.011719 C 18.971792,11.668964 18.997905,11.334773 19,11 Z M 3,5 C 3,4 4,4 4,4 V 18 C 4,18 3,18 3,17 3,16 3,6 3,5 Z m 9,7 -2,1.5 2,1.5 v -1 h 5 c 0.554,0 1,0.446 1,1 h 1 c 0,-1.108008 -0.891992,-2 -2,-2 h -5 z m -2,4 c 0,1.10801 0.89199,2 2,2 h 5 v 1 L 19,17.5 17,16 v 1 h -5 c -0.554,0 -1,-0.446 -1,-1 z" class="ColorScheme-Text"/>
  </g>
</svg>

<svg xmlns="http://www.w3.org/2000/svg" viewBox="0 0 24 24" width="24" height="24">
  <defs id="defs3051">
    <style type="text/css" id="current-color-scheme">
      .ColorScheme-Text {
        color:#eff0f1;
      }
      </style>
  </defs>
  <g transform="translate(1,1)">
    <path style="fill:currentColor;fill-opacity:1;stroke:none" d="M 2 3 L 2 19 L 3 19 L 9 19 L 9 18 L 8 18 C 8 17.447715 7.5522847 17 7 17 C 6.4477153 17 6 17.447715 6 18 L 5 18 L 5 11 L 5 4 L 6 4 C 6 4.5522847 6.4477153 5 7 5 C 7.5522847 5 8 4.5522847 8 4 L 12 4 L 16 4 C 16 4.5522847 16.447715 5 17 5 C 17.552285 5 18 4.5522847 18 4 L 19 4 L 19 11 L 19 12 L 20 12 L 20 3 L 3 3 L 2 3 z M 19 11 C 19 7.1340068 15.865993 4 12 4 C 8.1340068 4 5 7.1340068 5 11 C 5.00315 13.700827 6.5597788 16.15891 9 17.316406 L 9 16.189453 C 7.1456648 15.118854 6.0023916 13.1412 6 11 C 6 7.6862915 8.6862915 5 12 5 C 15.313708 5 18 7.6862915 18 11 C 17.998 11.335258 17.967986 11.669762 17.910156 12 L 18.921875 12 C 18.971792 11.668964 18.997905 11.334773 19 11 z M 3 4 L 4 4 L 4 18 L 3 18 L 3 4 z M 12 12 L 10 13.5 L 12 15 L 12 14 L 17 14 C 17.554 14 18 14.446 18 15 L 19 15 C 19 13.891992 18.108008 13 17 13 L 12 13 L 12 12 z M 10 16 C 10 17.10801 10.89199 18 12 18 L 17 18 L 17 19 L 19 17.5 L 17 16 L 17 17 L 12 17 C 11.446 17 11 16.554 11 16 L 10 16 z " class="ColorScheme-Text"/>
  </g>
</svg>
